X:1
T: Mr. John Trotter's Reel
C:
R:Jig
Q:180
K:Dm
M:6/8
L:1/16
|:A2|F4D2 D2F2D2|A2F2D2 d2F2D2|E4C2 C2E2G2|c2G2E2 C2E2G2|
F4D2 D2F2D2|A2F2D2 d2e2f2|A2G2F2 G2F2E2|F2D2D2 D4:|
|:g2|a2g2a2 f2e2d2|a2g2a2 f2e2d2|c2e2g2 c'2g2e2|c2g2f2 e2d2c2|
|1a2g2a2 f2e2d2|a2g2a2 f2e2d2|e2b2a2 g2f2e2|f2d2d2 d4:|
|2a2g2f2 g2f2e2|f2e2d2 e2d2^c2|d2B2A2 G2F2E2|F2D2D2 D4||
